Sources/FrostedUI/Resources/Icons.xcassets/bell20.imageset/bell-20.svg

<svg width="20" height="20" viewBox="0 0 20 20" fill="none" xmlns="http://www.w3.org/2000/svg" data-fui-icon="true">
  <g clip-path="url(#clip0_4063_729)">
    <path
      d="M10.0002 -0.000366211C12.9077 -0.0002099 14.6736 1.35765 15.6887 3.05042C16.6723 4.69077 16.9329 6.6056 16.9963 7.78967C17.0298 8.4141 17.2269 8.98149 17.5852 9.39514L17.9622 9.82971C19.4103 11.5008 19.367 13.9943 17.8625 15.6149C17.0428 16.4976 15.8924 16.9996 14.6877 16.9996H13.2415C13.183 17.9207 12.8016 18.6654 12.217 19.1852C11.5942 19.7387 10.7849 19.9996 10.0002 19.9996C9.21549 19.9996 8.40633 19.7388 7.78345 19.1852C7.19869 18.6654 6.81652 17.9209 6.75806 16.9996H5.31274C4.10801 16.9996 2.9577 16.4977 2.13794 15.6149C0.633242 13.9943 0.590075 11.5009 2.03833 9.82971L2.41528 9.39514C2.77348 8.9815 2.97077 8.41398 3.00415 7.78967C3.0675 6.60562 3.32734 4.69073 4.31079 3.05042C5.32593 1.35759 7.09252 -0.000366211 10.0002 -0.000366211ZM8.26392 16.9996C8.3159 17.4924 8.52049 17.8338 8.77954 18.0641C9.09414 18.3437 9.53505 18.4996 10.0002 18.4996C10.4653 18.4996 10.9064 18.3437 11.2209 18.0641C11.4798 17.8338 11.6836 17.4922 11.7356 16.9996H8.26392ZM10.0002 1.49963C7.66141 1.49963 6.36421 2.54407 5.5979 3.8219C4.80031 5.15214 4.56064 6.77752 4.5022 7.86975C4.4554 8.74498 4.17314 9.65617 3.5481 10.3776L3.17212 10.8121C2.22529 11.9046 2.25301 13.5349 3.23657 14.5944C3.77252 15.1715 4.52511 15.4996 5.31274 15.4996L14.6877 15.4996C15.4753 15.4996 16.228 15.1715 16.7639 14.5944C17.7472 13.5349 17.7751 11.9045 16.8284 10.8121L16.4524 10.3776C15.8272 9.65618 15.5451 8.74503 15.4983 7.86975C15.4398 6.77755 15.2002 5.15213 14.4026 3.8219C13.6363 2.544 12.3389 1.49978 10.0002 1.49963Z"
      fill="currentColor"
    />
  </g>
  <defs>
    <clipPath id="clip0_4063_729"><path fill="currentColor" d="M0 0H20V20H0z" /></clipPath>
  </defs>
</svg>

<svg xmlns="http://www.w3.org/2000/svg" width="20" height="20" fill="none" data-fui-icon="true" viewBox="0 0 20 20"><g clip-path="url(#a)"><path fill="currentColor" d="M10 0c2.908 0 4.674 1.358 5.689 3.05.983 1.64 1.244 3.556 1.307 4.74.034.624.23 1.191.59 1.605l.376.435A4.333 4.333 0 0 1 14.688 17H13.24c-.058.92-.44 1.665-1.024 2.185-.623.554-1.432.815-2.217.815s-1.594-.261-2.217-.815c-.584-.52-.966-1.264-1.025-2.185H5.313a4.333 4.333 0 0 1-3.275-7.17l.377-.435c.358-.413.556-.981.59-1.605.063-1.184.322-3.1 1.306-4.74C5.326 1.358 7.093 0 10 0M8.264 17c.052.492.256.834.516 1.064.314.28.755.436 1.22.436s.906-.156 1.22-.436c.26-.23.464-.572.516-1.064zM10 1.5c-2.339 0-3.636 1.044-4.402 2.322C4.8 5.152 4.56 6.778 4.502 7.87c-.047.875-.329 1.786-.954 2.508l-.376.434a2.833 2.833 0 0 0 2.14 4.688h9.376a2.834 2.834 0 0 0 2.14-4.688l-.376-.434c-.625-.722-.907-1.633-.954-2.508-.058-1.092-.298-2.718-1.095-4.048C13.636 2.544 12.339 1.5 10 1.5"/></g><defs><clipPath id="a"><path fill="currentColor" d="M0 0h20v20H0z"/></clipPath></defs></svg>
